!!!COM: Haydn, Franz Joseph
!!!ONM: Opus 09, No. 2
!!!OTL:
!!!OMV: 3b
!!!SCT: H /disk/dos2/musedata_2000/haydn/traut/quart/op09n2/stage1/03b
!!!SCA: Thematisch-bibliographisches Werkevererzeichnis (A. van Hoboken)
!!!YOR: Trautwein Edition
!!!EED: Frances Bennion
!!!ENC: Frances Bennion
!!!CDT: 1732/3/31/-1809/5/31/
!!!OCY: Österreich
!!!YEC: Copyright (c) 1994, 2000 Center for Computer Assisted Research in the Humanities
!!!YEM: Rights to all derivative editions reserved.
!!!YEM: Refer to licensing agreement for further details.
!!!YEN: United States of America
**kern	**kern	**kern	**kern
*k[b-e-a-]	*k[b-e-a-]	*k[b-e-a-]	*k[b-e-a-]
*c:	*c:	*c:	*c:
*clefG	*clefG	*clefC3	*clefF4
*M3/4	*M3/4	*M3/4	*M3/4
*tb96	*tb96	*tb96	*tb96
=1	=1	=1	=1
2.r	2.r	2.r	2.r
=2	=2	=2	=2
2.r	2.r	2.r	2.r
=3	=3	=3	=3
2.r	2.r	2.r	2.r
=4	=4	=4	=4
2.r	2.r	2.r	2.r
=5	=5	=5	=5
2.r	2.r	2.r	2.r
=6	=6	=6	=6
2.r	2.r	2.r	2.r
=7	=7	=7	=7
2.r	2.r	2.r	2.r
=8	=8	=8	=8
2.r	2.r	2.r	2.r
=9	=9	=9	=9
2gg	8r	8r	8C
.	8g	8e-	8r
.	8r	8r	8C
.	8g	8e-	8r
16ff	8r	8r	8C
16ee-	.	.	.
16dd	8g	8e-	8r
16cc	.	.	.
=10	=10	=10	=10
8b	8r	8r	8D
8aa-	8f	8B	8r
4.aa-	8r	8r	8D
.	8f	8B	8r
.	8r	8r	8D
8b	8f	8B	8r
=11	=11	=11	=11
8cc	8r	8r	8E-
32cc	8g	8c	8r
32b	.	.	.
32cc	.	.	.
32dd	.	.	.
8ee-	8r	8r	8E-
8cc	8g	8c	8r
8g	8r	8r	8E-
8cc	8g	8c	8r
=12	=12	=12	=12
8a-	8r	8r	8F
16g	8a-	8c	8r
16f	.	.	.
8.e-	8r	8r	8G
.	8e-	8c	8r
32d	.	.	.
32e-	.	.	.
16f	8r	8r	8GG
16d	.	.	.
16c	8f	8d	8r
16B	.	.	.
=13	=13	=13	=13
8.c	8r	8r	8C
.	8e-	8c	8r
32B	.	.	.
32c	.	.	.
8G	8r	8r	8C
4.r	8g	8e-	8r
.	8r	8r	8G
.	8f	8d	8r
=14	=14	=14	=14
2gg	8r	8r	8C
.	8e-	8G	8r
.	8r	8r	8C
.	8e-	8G	8r
16ff	8r	8r	8C
16ee-	.	.	.
16dd	8g	8e-	8r
16cc	.	.	.
=15	=15	=15	=15
8cc	8r	8r	8F
8aa-	8a-	8c	8r
[2aa-	8r	8r	8F
.	8a-	8c	8r
.	8r	8r	8E-
.	8a-	8c	8r
=16	=16	=16	=16
16aa-]	8r	8r	8D
16ff	.	.	.
16dd	8a-	8B-	8r
16b-	.	.	.
16a-	8r	8r	8D
16f	.	.	.
16d	8a-	8B-	8r
16B-	.	.	.
16A-	8r	8r	8D
32G	.	.	.
32A-	.	.	.
16f	8a-	8B-	8r
16A-	.	.	.
=17	=17	=17	=17
8G	8r	8r	8E-
8bb-	8g	8B-	8r
4.bb-	8r	8r	8E-
.	8g	8B-	8r
.	8r	8r	8GG
16aa-	8b-	8e-	8r
16gg	.	.	.
=18	=18	=18	=18
[12..ff	8r	8r	8AA-
.	8cc	8e-	8r
96ff]	.	.	.
32aa-	.	.	.
32gg	.	.	.
32ff	.	.	.
4.ccc	8r	8r	8AA-
.	8cc	8e-	8r
.	8r	8r	8AA
8ee-	8cc	8f	8r
=19	=19	=19	=19
4dd	8r	8r	8BB-
.	8b-	8d	8r
4.aa-	8r	8r	8BB-
.	8f	8d	8r
.	8r	8r	8BB-
16ff	8a-	8f	8r
16dd	.	.	.
=20	=20	=20	=20
8ee-	8r	8r	8BB-
8bb-	8g	8e-	8r
4.bb-	8r	8r	8BB-
.	8g	8e-	8r
.	8r	8r	8BB-
16gg	8b-	8g	8r
16ee	.	.	.
=21	=21	=21	=21
8ff	8r	8r	8BB-
8aa-	8a-	8f	8r
4.ccc	8r	8r	8BB-
.	8a-	8f	8r
.	8r	8r	8BB-
32bb-	8a-	8d	8r
32aa-	.	.	.
32gg	.	.	.
32ff	.	.	.
=22	=22	=22	=22
8gg	8r	8r	8E-
16eee-	8g	8e-	8r
16ddd-	.	.	.
2ddd-	8r	8r	8G
.	8b-	8e-	8r
.	8r	8r	8G
.	8b-	8e-	8r
=23	=23	=23	=23
8ccc	8r	8r	8A-
8eee	8cc	8e	8r
8fff	8r	8r	8A-
8ggg	8cc	8f	8r
8aaa-	8r	8r	8A-
8fff	8cc	8f	8r
=24	=24	=24	=24
4eee-	4.b-	4.f	4.A-
8ddd	.	.	.
8.r	4r	4r	4r
16d	.	.	.
16e-	8b-	8e-	8GG
16ee-	.	.	.
=25	=25	=25	=25
8cc	8r	8r	8AA-
16b-	8cc	8e-	8r
16a-	.	.	.
4g	8r	8r	8BB-
.	8e-	8B-	8r
4f	8r	8r	8BB-
.	8d	8B-	8r
=26	=26	=26	=26
4.e-	8r	8r	8E-
.	8d-	8B-	8r
.	4.c	4.A-	8E-
16a-	.	.	8r
16g	.	.	.
16a-	.	.	8E-
16f	.	.	.
16e-	8A-	8F	8r
16d	.	.	.
=27	=27	=27	=27
4.e-	8G	8E-	8EE-
.	8d-	8B-	8r
.	4.c	4.A-	8EE-
16ee-	.	.	8r
16cc	.	.	.
16b-	.	.	8EE-
16a-	.	.	.
16g	8A-	8d	8r
16f	.	.	.
=28	=28	=28	=28
4f	4A-	4d	4.EE-
8e-	8G	8e-	.
4.r	4.r	4.r	8F
.	.	.	8E-
.	.	.	8D
=29	=29	=29	=29
2gg	8r	8r	8C
.	8g	8e-	8r
.	8r	8r	8C
.	8g	8e-	8r
16ff	8r	8r	8C
16ee-	.	.	.
16dd	8g	8e-	8r
16cc	.	.	.
=30	=30	=30	=30
8b	8r	8r	8D
8aa-	8f	8B	8r
[6..aa-	8r	8r	8D
.	8f	8B	8r
.	8r	8r	8D
48aa-]	.	.	.
32gg	.	.	.
32ff	.	.	.
32ee-	8f	8B	8r
32dd	.	.	.
32cc	.	.	.
32b	.	.	.
=31	=31	=31	=31
8cc	8r	8r	8E-
32cc	8g	8c	8r
32b	.	.	.
32cc	.	.	.
32dd	.	.	.
8ee-	8r	8r	8E-
8cc	8g	8c	8r
8g	8r	8r	8E-
8cc	8g	8c	8r
=32	=32	=32	=32
8a-	8r	8r	8F
16g	8a-	8c	8r
16f	.	.	.
8.e-	8r	8r	8G
.	8e-	8c	8r
32d	.	.	.
32e-	.	.	.
16f	8r	8r	8GG
16d	.	.	.
16c	8f	8d	8r
16B	.	.	.
=33	=33	=33	=33
8.c	8r	8r	8C
.	8e-	8c	8r
32B	.	.	.
32c	.	.	.
8G	8r	8r	8C
4.r	8g	8e-	8r
.	8r	8r	8G
.	8f	8d	8r
=34	=34	=34	=34
2gg	8r	8r	8C
.	8e-	8G	8r
.	8r	8r	8C
.	8e-	8G	8r
16ff	8r	8r	8C
16ee-	.	.	.
16dd	8g	8e-	8r
16cc	.	.	.
=35	=35	=35	=35
8cc	8r	8r	8F
8aa-	8a-	8c	8r
[2aa-	8r	8r	8F
.	8a-	8c	8r
.	8r	8r	8E-
.	8a-	8c	8r
=36	=36	=36	=36
16aa-]	8r	8r	8D
32gg	.	.	.
32ff	.	.	.
32ee-	8a-	8B-	8r
32dd	.	.	.
32cc	.	.	.
32b-	.	.	.
32a-	8r	8r	8D
32g	.	.	.
32f	.	.	.
32e-	.	.	.
32d	8a-	8B-	8r
32c	.	.	.
32B-	.	.	.
32A	.	.	.
8B-	8r	8r	8D
8A-	8a-	8B-	8r
=37	=37	=37	=37
32G	8r	8r	8E-
32B-	.	.	.
32d	.	.	.
32e-	.	.	.
32g	8g	8B-	8r
32b-	.	.	.
32ee-	.	.	.
32gg	.	.	.
[6..bb-	8r	8r	8E-
.	8g	8B-	8r
.	8r	8r	8GG
48bb-]	.	.	.
16bb-	.	.	.
16aa-	8b-	8e-	8r
16gg	.	.	.
=38	=38	=38	=38
32ff	8r	8r	8AA-
32ee	.	.	.
32gg	.	.	.
32ff	.	.	.
32aa-	8cc	8e-	8r
32gg	.	.	.
32bb-	.	.	.
32aa-	.	.	.
6..ccc	8r	8r	8AA-
.	8cc	8e-	8r
.	8r	8r	8AA
24bb-	.	.	.
24aa	.	.	.
24gg	8cc	8f	8r
24ff	.	.	.
24ee-	.	.	.
=39	=39	=39	=39
8dd	8r	8r	8BB-
8aa-	8b-	8d	8r
6..aa-	8r	8r	8BB-
.	8f	8d	8r
.	8r	8r	8BB-
24ff	.	.	.
24dd	.	.	.
24ff	8a-	8f	8r
24dd	.	.	.
24a-	.	.	.
=40	=40	=40	=40
24g	8r	8r	8BB-
24b-	.	.	.
24dd	.	.	.
24ee-	8g	8e-	8r
24gg	.	.	.
24bb-	.	.	.
4.bb-	8r	8r	8BB-
.	8g	8e-	8r
.	8r	8r	8BB-
32aa-	8b-	8g	8r
32gg	.	.	.
32ff	.	.	.
32ee	.	.	.
=41	=41	=41	=41
32ff	8r	8r	8BB-
32gg	.	.	.
32ff	.	.	.
32gg	.	.	.
32aa-	8a-	8f	8r
32bb-	.	.	.
32aa-	.	.	.
32bb-	.	.	.
4.ccc	8r	8r	8BB-
.	8a-	8f	8r
.	8r	8r	8BB-
32bb-	8a-	8d	8r
32aa-	.	.	.
32gg	.	.	.
32ff	.	.	.
=42	=42	=42	=42
16gg	8r	8r	8E-
16ee-	.	.	.
16eee-	8g	8e-	8r
16ddd-	.	.	.
2ddd-	8r	8r	8G
.	8b-	8e-	8r
.	8r	8r	8G
.	8b-	8e-	8r
=43	=43	=43	=43
8ccc	8r	8r	8A-
8eee	8cc	8e	8r
8fff	8r	8r	8A-
8ggg	8cc	8f	8r
8aaa-	8r	8r	8A-
8fff	8cc	8f	8r
=44	=44	=44	=44
16eee-	4.b-	4.f	4.A-
32ddd	.	.	.
32fff	.	.	.
32aaa-	.	.	.
32fff	.	.	.
32ddd	.	.	.
32bb-	.	.	.
32aa-	.	.	.
32bb-	.	.	.
32ddd	.	.	.
32fff	.	.	.
32aaa-	4r	4r	4r
64fff	.	.	.
64ddd	.	.	.
64bb-	.	.	.
64aa-	.	.	.
64bb-	.	.	.
64ddd	.	.	.
64fff	.	.	.
64aaa-	.	.	.
64fff	.	.	.
64ddd	.	.	.
64bb-	.	.	.
64aa-	.	.	.
32r	.	.	.
64d	8b-	8e-	8GG
64e-	.	.	.
64d	.	.	.
64e-	.	.	.
32dd	.	.	.
32ee-	.	.	.
=45	=45	=45	=45
8cc	8r	8r	8AA-
16b-	8cc	8e-	8r
16a-	.	.	.
4g	8r	8r	8BB-
.	8e-	8B-	8r
4f	8r	8r	8BB-
.	8d	8B-	8r
=46	=46	=46	=46
2.e-	8r	8r	8E-
.	8B-	8G	8r
.	8r	8r	8E-
.	8B-	8G	8r
.	8r	8r	8D-
.	8B-	8G	8r
=47	=47	=47	=47
4.e	8r	8r	8C
.	8B-	8G	8r
.	8r	8r	8C
8dd-	8B-	8G	8r
8cc	8r	8r	8C
8e	8B-	8G	8r
=48	=48	=48	=48
2.f	8r	8r	8F
.	8A-	8A-	8r
.	8r	8r	8F
.	8c	8A-	8r
.	8r	8r	8E-
.	8c	8A	8r
=49	=49	=49	=49
4.f#	8r	8r	8D
.	8c	8A	8r
.	8r	8r	8D
8ee-	8c	8A	8r
8dd	8r	8r	8D
8f#	8c	8A	8r
=50	=50	=50	=50
4g	8r	8r	8G
.	8B	8G	8r
4.ff	8r	8r	8G
.	8d	8B	8r
.	8r	8r	8G
16dd	8f	8d	8r
16b	.	.	.
=51	=51	=51	=51
8cc	8r	8r	8G
8gg	8e-	8c	8r
4.gg	8r	8r	8G
.	8e-	8c	8r
.	8r	8r	8G
32ff	8g	8e-	8r
32ee-	.	.	.
32dd	.	.	.
32cc	.	.	.
=52	=52	=52	=52
8b	8r	8r	8G
8aa-	8f	8d	8r
4.aa-	8r	8r	8G
.	8f	8d	8r
.	8r	8r	8G
32gg	8f	8B	8r
32ff	.	.	.
32ee-	.	.	.
32dd	.	.	.
=53	=53	=53	=53
16ee-	8r	8r	8C
16cc	.	.	.
16ccc	8e-	8c	8r
16bb-	.	.	.
2bb-	8r	8r	8E
.	8g	8c	8r
.	8r	8r	8E
.	8g	8c	8r
=54	=54	=54	=54
8aa-	8r	8r	8F
8gg	8a-	8c	8r
8ff	8r	8r	8F
8ee-	8a-	8c	8r
8dd	8r	8r	8F
8cc	8a-	8d	8r
=55	=55	=55	=55
4cc	4.g	4.d	4.F
8b	.	.	.
8.r	4r	4r	4r
16b	.	.	.
16cc	8g	8c	8E-
16ccc	.	.	.
=56	=56	=56	=56
8aa-	8r	8r	8F
16gg	8cc	8a-	8r
16ff	.	.	.
4ee-	8r	8r	8G
.	8cc	8e-	8r
4dd-	8r	8r	8GG
.	8b-	8e-	8r
=57	=57	=57	=57
[2.cc	8r	8r	8AA-
.	8a-	8e-	8r
.	8r	8r	8GG
.	8ee-	8cc	8r
.	8r	8r	8FF#
.	8ccc	8ee-	8r
=58	=58	=58	=58
4cc	4G	4G	4GG
2dd	2r	2r	2r
=59	=59	=59	=59
4.cc	8r	8r	8C
.	8cc	8c	8r
.	8r	8r	4E-
8g	4c	8E-	.
8a-	.	8F	8F
8B	[8f	8G	8G
=60	=60	=60	=60
4B	4f]	4.A-	4.A-
8c	8e-	.	.
8g	4c	8E-	8E-
8a-	.	8F	8F
8B	8d	8F	8G
=61	=61	=61	=61
4B	4d	4F	4C
8c	8c	8E-	8CC
4.r	4.r	4.r	4.r
==	==	==	==
*-	*-	*-	*-
!!!RWG1: This file contains only pitch and duration data.
!!!RWG2: Transposing instruments are not transposed.
!!!RWG3: Spines may have incompatible meters.
!!!RWG4: Durations of rests and tied notes may be interpreted.
!!!RWG: Key is interpreted using the Humdrum key tool.
!!!AFT: stage1
!!!END: 1997/04/15
!!format changes:
!!content changes:
!!public access: complete
!!!KEY: 4068290222
!!!EMD: Converted from MuseData to Humdrum Dec 16, 2000, by Andreas Kornstaedt using muse2kern.
